packages/components/src/components/icon/common/ic-online-naira.svg

<svg width="64" height="36" viewBox="0 0 64 36" fill="none" xmlns="http://www.w3.org/2000/svg">
<path d="M34.3113 1.12569C33.4831 0.89394 32.6098 0.77002 31.7075 0.77002C26.3823 0.77002 22.0653 5.08699 22.0653 10.4122C22.0653 14.5027 24.6124 17.9983 28.2071 19.3994L28.2107 19.3823L28.2239 19.4013L28.4899 18.0327L28.592 17.539C28.5901 17.5381 28.5882 17.5373 28.5863 17.5365L30.1523 9.47912L33.5738 15.0778H35.129L37.3048 5.01444C38.6538 6.41295 39.4835 8.3157 39.4835 10.4122C39.4835 14.7068 36.0021 18.1882 31.7075 18.1882C31.2828 18.1882 30.866 18.1542 30.4597 18.0886L30.0648 19.9151C30.5986 20.0067 31.1475 20.0545 31.7075 20.0545C37.0328 20.0545 41.3497 15.7375 41.3497 10.4122C41.3497 6.67683 39.2256 3.43753 36.1194 1.8363L36.1118 1.82756L36.1109 1.83192L36.1077 1.83026L36.0883 1.93463L33.8848 11.9674L30.7744 6.36873H28.9082L26.8802 16.5087C25.0838 15.0844 23.9315 12.8829 23.9315 10.4122C23.9315 6.11768 27.413 2.63626 31.7075 2.63626C32.4849 2.63626 33.2357 2.75033 33.9439 2.96266L34.3113 1.12569Z" fill="#008751"/>
<path d="M7.33859 30.9168C7.33859 31.7835 7.18874 32.5449 6.88904 33.201C6.58934 33.853 6.16004 34.3552 5.60114 34.7076C5.04629 35.0559 4.40639 35.23 3.68144 35.23C2.96459 35.23 2.3247 35.0559 1.76175 34.7076C1.20285 34.3552 0.769498 33.8551 0.461699 33.2071C0.15795 32.5591 0.00404999 31.8118 0 30.9654V30.4672C0 29.6046 0.151875 28.8432 0.455624 28.183C0.763424 27.5229 1.19475 27.0187 1.7496 26.6704C2.3085 26.318 2.94839 26.1418 3.66929 26.1418C4.39019 26.1418 5.02807 26.316 5.58291 26.6643C6.14181 27.0085 6.57314 27.5067 6.87689 28.1587C7.18064 28.8067 7.33454 29.5621 7.33859 30.4247V30.9168ZM5.80161 30.4551C5.80161 29.475 5.61531 28.7237 5.24271 28.2013C4.87417 27.6788 4.34969 27.4176 3.66929 27.4176C3.00509 27.4176 2.48467 27.6788 2.10802 28.2013C1.73542 28.7197 1.54507 29.4547 1.53697 30.4065V30.9168C1.53697 31.8888 1.7253 32.6401 2.10195 33.1706C2.48265 33.7012 3.00914 33.9664 3.68144 33.9664C4.36184 33.9664 4.88429 33.7072 5.24879 33.1888C5.61734 32.6704 5.80161 31.9131 5.80161 30.9168V30.4551Z" fill="#333333"/>
<path d="M10.0966 28.5354L10.1392 29.2948C10.6252 28.7075 11.263 28.4139 12.0528 28.4139C13.4217 28.4139 14.1183 29.1976 14.1426 30.7649V35.1085H12.6663V30.85C12.6663 30.4328 12.5752 30.125 12.393 29.9266C12.2148 29.7241 11.9212 29.6228 11.5121 29.6228C10.9168 29.6228 10.4733 29.8921 10.1817 30.4308V35.1085H8.70546V28.5354H10.0966Z" fill="#333333"/>
<path d="M17.2226 35.1085H15.7464V25.7773H17.2226V35.1085Z" fill="#333333"/>
<path d="M20.4059 35.1085H18.9297V28.5354H20.4059V35.1085ZM18.8385 26.8283C18.8385 26.6015 18.9094 26.4132 19.0512 26.2633C19.197 26.1135 19.4035 26.0386 19.6708 26.0386C19.9381 26.0386 20.1447 26.1135 20.2905 26.2633C20.4363 26.4132 20.5092 26.6015 20.5092 26.8283C20.5092 27.0511 20.4363 27.2374 20.2905 27.3872C20.1447 27.533 19.9381 27.6059 19.6708 27.6059C19.4035 27.6059 19.197 27.533 19.0512 27.3872C18.9094 27.2374 18.8385 27.0511 18.8385 26.8283Z" fill="#333333"/>
<path d="M23.3887 28.5354L23.4312 29.2948C23.9172 28.7075 24.5551 28.4139 25.3449 28.4139C26.7137 28.4139 27.4103 29.1976 27.4346 30.7649V35.1085H25.9584V30.85C25.9584 30.4328 25.8673 30.125 25.6851 29.9266C25.5069 29.7241 25.2132 29.6228 24.8042 29.6228C24.2088 29.6228 23.7654 29.8921 23.4738 30.4308V35.1085H21.9975V28.5354H23.3887Z" fill="#333333"/>
<path d="M31.839 35.23C30.9035 35.23 30.1441 34.9364 29.5609 34.3492C28.9817 33.7579 28.6922 32.9722 28.6922 31.9921V31.8098C28.6922 31.1537 28.8177 30.5685 29.0688 30.0541C29.324 29.5357 29.6804 29.1328 30.138 28.8452C30.5957 28.5577 31.106 28.4139 31.6689 28.4139C32.564 28.4139 33.2545 28.6994 33.7405 29.2705C34.2305 29.8415 34.4756 30.6495 34.4756 31.6944V32.2897H30.1805C30.2251 32.8324 30.4053 33.2617 30.7212 33.5776C31.0412 33.8935 31.4421 34.0515 31.9241 34.0515C32.6004 34.0515 33.1512 33.7781 33.5765 33.2314L34.3723 33.9907C34.109 34.3836 33.7567 34.6894 33.3152 34.9081C32.8778 35.1227 32.3858 35.23 31.839 35.23ZM31.6628 29.5985C31.2578 29.5985 30.9298 29.7403 30.6787 30.0238C30.4316 30.3073 30.2737 30.7021 30.2048 31.2084H33.0176V31.099C32.9852 30.6049 32.8535 30.2323 32.6227 29.9812C32.3918 29.7261 32.0719 29.5985 31.6628 29.5985Z" fill="#333333"/>
<path d="M42.7861 35.1085H41.2492L37.3065 28.8331V35.1085H35.7695V26.2633H37.3065L41.2613 32.5631V26.2633H42.7861V35.1085Z" fill="#333333"/>
<path d="M48.3873 35.1085C48.3225 34.983 48.2658 34.7785 48.2172 34.495C47.7474 34.985 47.1723 35.23 46.4919 35.23C45.8317 35.23 45.2931 35.0417 44.8759 34.6651C44.4588 34.2884 44.2502 33.8227 44.2502 33.2678C44.2502 32.5672 44.5094 32.0305 45.0278 31.6579C45.5503 31.2813 46.2955 31.093 47.2634 31.093H48.1686V30.6616C48.1686 30.3214 48.0734 30.0501 47.8831 29.8476C47.6927 29.641 47.4031 29.5378 47.0143 29.5378C46.6782 29.5378 46.4028 29.6228 46.1881 29.7929C45.9735 29.959 45.8662 30.1716 45.8662 30.4308H44.3899C44.3899 30.0703 44.5094 29.7342 44.7484 29.4223C44.9873 29.1064 45.3113 28.8594 45.7204 28.6812C46.1335 28.503 46.5931 28.4139 47.0994 28.4139C47.8689 28.4139 48.4825 28.6083 48.9401 28.9971C49.3978 29.3818 49.6327 29.9245 49.6448 30.6252V33.5898C49.6448 34.1811 49.7278 34.6529 49.8939 35.0053V35.1085H48.3873ZM46.7653 34.0454C47.0569 34.0454 47.3302 33.9745 47.5854 33.8328C47.8446 33.691 48.039 33.5007 48.1686 33.2617V32.0224H47.3728C46.826 32.0224 46.4149 32.1176 46.1395 32.308C45.8641 32.4983 45.7264 32.7676 45.7264 33.1159C45.7264 33.3994 45.8196 33.6262 46.0059 33.7963C46.1962 33.9624 46.4494 34.0454 46.7653 34.0454Z" fill="#333333"/>
<path d="M52.7613 35.1085H51.285V28.5354H52.7613V35.1085ZM51.1939 26.8283C51.1939 26.6015 51.2648 26.4132 51.4065 26.2633C51.5523 26.1135 51.7589 26.0386 52.0262 26.0386C52.2935 26.0386 52.5 26.1135 52.6459 26.2633C52.7916 26.4132 52.8645 26.6015 52.8645 26.8283C52.8645 27.0511 52.7916 27.2374 52.6459 27.3872C52.5 27.533 52.2935 27.6059 52.0262 27.6059C51.7589 27.6059 51.5523 27.533 51.4065 27.3872C51.2648 27.2374 51.1939 27.0511 51.1939 26.8283Z" fill="#333333"/>
<path d="M57.8157 29.884C57.6213 29.8516 57.4208 29.8354 57.2142 29.8354C56.5379 29.8354 56.0823 30.0946 55.8474 30.613V35.1085H54.3711V28.5354H55.7805L55.817 29.2705C56.1734 28.6994 56.6675 28.4139 57.2993 28.4139C57.5099 28.4139 57.684 28.4422 57.8217 28.4989L57.8157 29.884Z" fill="#333333"/>
<path d="M62.4934 35.1085C62.4286 34.983 62.3719 34.7785 62.3233 34.495C61.8535 34.985 61.2784 35.23 60.598 35.23C59.9379 35.23 59.3992 35.0417 58.9821 34.6651C58.5649 34.2884 58.3563 33.8227 58.3563 33.2678C58.3563 32.5672 58.6155 32.0305 59.1339 31.6579C59.6564 31.2813 60.4016 31.093 61.3695 31.093H62.2747V30.6616C62.2747 30.3214 62.1795 30.0501 61.9892 29.8476C61.7988 29.641 61.5093 29.5378 61.1205 29.5378C60.7843 29.5378 60.5089 29.6228 60.2943 29.7929C60.0796 29.959 59.9723 30.1716 59.9723 30.4308H58.4961C58.4961 30.0703 58.6155 29.7342 58.8545 29.4223C59.0934 29.1064 59.4174 28.8594 59.8265 28.6812C60.2396 28.503 60.6993 28.4139 61.2055 28.4139C61.975 28.4139 62.5886 28.6083 63.0462 28.9971C63.5039 29.3818 63.7388 29.9245 63.7509 30.6252V33.5898C63.7509 34.1811 63.834 34.6529 64 35.0053V35.1085H62.4934ZM60.8714 34.0454C61.163 34.0454 61.4364 33.9745 61.6915 33.8328C61.9507 33.691 62.1451 33.5007 62.2747 33.2617V32.0224H61.4789C60.9321 32.0224 60.5211 32.1176 60.2457 32.308C59.9703 32.4983 59.8326 32.7676 59.8326 33.1159C59.8326 33.3994 59.9257 33.6262 60.112 33.7963C60.3024 33.9624 60.5555 34.0454 60.8714 34.0454Z" fill="#333333"/>
</svg>

<svg width="64" height="36" fill="none" xmlns="http://www.w3.org/2000/svg"><path d="M34.311 1.126a9.642 9.642 0 0 0-12.246 9.287 9.646 9.646 0 0 0 6.142 8.986l.004-.017.013.02.266-1.37.102-.493a.141.141 0 0 0-.006-.003l1.566-8.057 3.422 5.599h1.555l2.176-10.064a7.776 7.776 0 0 1-6.845 13.074l-.395 1.827c.534.092 1.082.14 1.642.14 5.326 0 9.643-4.317 9.643-9.643a9.642 9.642 0 0 0-5.23-8.576l-.008-.008-.001.004-.003-.002-.02.105-2.203 10.032-3.11-5.598h-1.867l-2.028 10.14a7.776 7.776 0 0 1 7.064-13.546l.367-1.837Z" fill="#008751"/><path d="M7.339 30.917c0 .866-.15 1.628-.45 2.284-.3.652-.729 1.154-1.288 1.507-.555.348-1.195.522-1.92.522-.716 0-1.356-.174-1.92-.522-.558-.353-.992-.853-1.3-1.5-.303-.649-.457-1.396-.461-2.243v-.498c0-.862.152-1.624.456-2.284.307-.66.739-1.164 1.294-1.513.558-.352 1.198-.528 1.92-.528.72 0 1.358.174 1.913.522.559.345.99.843 1.294 1.495.304.648.458 1.403.462 2.266v.492Zm-1.537-.462c0-.98-.187-1.731-.56-2.254-.368-.522-.892-.783-1.573-.783-.664 0-1.184.26-1.561.783-.373.519-.563 1.254-.571 2.206v.51c0 .972.188 1.723.565 2.254.38.53.907.795 1.58.795.68 0 1.202-.259 1.567-.777.368-.519.553-1.276.553-2.272v-.462ZM10.097 28.535l.042.76c.486-.588 1.124-.881 1.914-.881 1.369 0 2.065.784 2.09 2.35v4.345h-1.477V30.85c0-.417-.09-.725-.273-.923-.178-.203-.472-.304-.88-.304-.596 0-1.04.27-1.331.808v4.677H8.705v-6.573h1.392ZM17.223 35.108h-1.477v-9.33h1.477v9.33ZM20.406 35.108H18.93v-6.573h1.476v6.573Zm-1.567-8.28a.79.79 0 0 1 .212-.565c.146-.15.353-.224.62-.224s.474.074.62.224c.145.15.218.338.218.565a.77.77 0 0 1-.218.56c-.146.145-.353.218-.62.218s-.474-.073-.62-.219a.781.781 0 0 1-.212-.559ZM23.389 28.535l.042.76c.486-.588 1.124-.881 1.914-.881 1.369 0 2.065.784 2.09 2.35v4.345h-1.477V30.85c0-.417-.09-.725-.273-.923-.178-.203-.472-.304-.88-.304-.596 0-1.04.27-1.331.808v4.677h-1.477v-6.573h1.392ZM31.839 35.23c-.935 0-1.695-.294-2.278-.88-.58-.592-.869-1.378-.869-2.358v-.182c0-.656.126-1.241.377-1.756a2.907 2.907 0 0 1 1.069-1.209 2.82 2.82 0 0 1 1.53-.431c.896 0 1.587.285 2.072.856.49.572.736 1.38.736 2.424v.596H30.18c.045.542.225.972.541 1.288.32.316.721.473 1.203.473.676 0 1.227-.273 1.653-.82l.795.76a2.676 2.676 0 0 1-1.057.917c-.437.215-.93.322-1.476.322Zm-.176-5.631c-.405 0-.733.141-.984.425-.247.283-.405.678-.474 1.184h2.813V31.1c-.033-.494-.165-.867-.395-1.118-.231-.255-.551-.383-.96-.383ZM42.786 35.108H41.25l-3.943-6.275v6.276H35.77v-8.846h1.536l3.955 6.3v-6.3h1.525v8.845ZM48.387 35.108c-.065-.125-.121-.33-.17-.613-.47.49-1.045.735-1.725.735-.66 0-1.199-.188-1.616-.565a1.808 1.808 0 0 1-.626-1.397c0-.7.26-1.237.778-1.61.522-.377 1.267-.565 2.235-.565h.906v-.431c0-.34-.096-.612-.286-.814-.19-.207-.48-.31-.869-.31-.336 0-.611.085-.826.255a.772.772 0 0 0-.322.638H44.39c0-.36.12-.697.358-1.009.24-.316.563-.563.972-.74a3.446 3.446 0 0 1 1.38-.268c.769 0 1.383.194 1.84.583.458.385.693.927.705 1.628v2.965c0 .591.083 1.063.249 1.415v.103h-1.507Zm-1.622-1.063c.292 0 .565-.07.82-.212.26-.142.454-.332.584-.571v-1.24h-.796c-.547 0-.958.096-1.233.286a.925.925 0 0 0-.414.808c0 .283.094.51.28.68.19.166.443.25.76.25ZM52.761 35.108h-1.476v-6.573h1.476v6.573Zm-1.567-8.28a.79.79 0 0 1 .212-.565c.146-.15.353-.224.62-.224s.474.074.62.224c.146.15.218.338.218.565a.77.77 0 0 1-.218.56c-.146.145-.352.218-.62.218-.267 0-.474-.073-.62-.219a.782.782 0 0 1-.212-.559ZM57.816 29.884a3.654 3.654 0 0 0-.602-.049c-.676 0-1.132.26-1.367.778v4.495h-1.476v-6.573h1.41l.036.735c.356-.57.85-.856 1.482-.856.21 0 .385.028.523.085l-.006 1.385ZM62.493 35.108c-.064-.125-.121-.33-.17-.613-.47.49-1.045.735-1.725.735-.66 0-1.199-.188-1.616-.565a1.808 1.808 0 0 1-.626-1.397c0-.7.26-1.237.778-1.61.522-.377 1.268-.565 2.236-.565h.905v-.431c0-.34-.096-.612-.286-.814-.19-.207-.48-.31-.868-.31-.337 0-.612.085-.827.255a.772.772 0 0 0-.322.638h-1.476c0-.36.12-.697.358-1.009.24-.316.563-.563.973-.74a3.447 3.447 0 0 1 1.379-.268c.769 0 1.383.194 1.84.583.458.385.693.927.705 1.628v2.965c0 .591.083 1.063.249 1.415v.103h-1.507Zm-1.622-1.063c.292 0 .565-.07.82-.212.26-.142.454-.332.584-.571v-1.24h-.796c-.547 0-.958.096-1.233.286a.925.925 0 0 0-.413.808c0 .283.093.51.279.68.19.166.444.25.76.25Z" fill="#333"/></svg>
